X:0222
T:I wish you a merry new Year.
M:6/8
L:1/8
Q:3/8=120
I: :: ||
Z:Jack Campin * www.campin.me.uk * 2009
K:D
A|A2d dcd|efe efg|fed g2f |Tf3 e2
A|A2d dcd|efe efg|fed edc |(c3 d2)||
g|fga agf|efg gag|fed d<gf| f3 e2
A|A2d dcd|efe efg|fed edc | c3 d2 |]
<end>
<start>
